packages/axiom-materials/src/icon_svgs/line-graph.svg

<svg height="16" viewBox="0 0 16 16" width="16" xmlns="http://www.w3.org/2000/svg"><path d="m12.5327939 9.05501144c.1499918-.03596344.306538-.05501144.4675061-.05501144 1.104 0 2 .896 2 2s-.896 2-2 2-2-.896-2-2c0-.3947417.1145502-.7628914.3122006-1.07299909l-2.844353-3.98209427c-.15009568.03601644-.30675736.05509336-.4678476.05509336-.27689145 0-.54069878-.05636233-.78056751-.15823249l-2.37766498 2.37766498c.10187016.23986873.15823249.50367606.15823249.78056751 0 1.104-.896 2-2 2s-2-.896-2-2 .896-2 2-2c.27699948 0 .54090463.05640632.78084825.15835175l2.3775035-2.3775035c-.10194543-.23994362-.15835175-.50384877-.15835175-.78084825 0-1.104.896-2 2-2s2 .896 2 2c0 .39461613-.11447734.76265716-.31201205 1.07270313z" fill-rule="evenodd"/></svg>

<svg xmlns="http://www.w3.org/2000/svg" width="16" height="16" viewBox="0 0 16 16">
  <path fill-rule="evenodd" d="M12.5327939,9.05501144 C12.6827857,9.019048 12.8393319,9 13.0003,9 C14.1043,9 15.0003,9.896 15.0003,11 C15.0003,12.104 14.1043,13 13.0003,13 C11.8963,13 11.0003,12.104 11.0003,11 C11.0003,10.6052583 11.1148502,10.2371086 11.3125006,9.92700091 L8.4681476,5.94490664 C8.31805192,5.98092308 8.16139024,6 8.0003,6 C7.72340855,6 7.45960122,5.94363767 7.21973249,5.84176751 L4.84206751,8.21943249 C4.94393767,8.45930122 5.0003,8.72310855 5.0003,9 C5.0003,10.104 4.1043,11 3.0003,11 C1.8963,11 1.0003,10.104 1.0003,9 C1.0003,7.896 1.8963,7 3.0003,7 C3.27729948,7 3.54120463,7.05640632 3.78114825,7.15835175 L6.15865175,4.78084825 C6.05670632,4.54090463 6.0003,4.27699948 6.0003,4 C6.0003,2.896 6.8963,2 8.0003,2 C9.1043,2 10.0003,2.896 10.0003,4 C10.0003,4.39461613 9.88582266,4.76265716 9.68828795,5.07270313 L12.5327939,9.05501144 Z"/>
</svg>
